assets/imgs/icon_0.svg

<svg width="40" height="40" viewBox="0 0 40 40" fill="none" xmlns="http://www.w3.org/2000/svg">
<path d="M19.9943 29.5022C18.5758 30.5979 4.96231 30.6205 4.01282 29.5022C3.06332 28.3838 2.12105 23.0924 4.48334 20.4628C6.13558 18.6236 8.93556 18.0934 8.93556 18.0934C8.93556 18.0934 4.77015 16.4087 4.77015 12.258C4.77015 7.9032 7.42076 5 11.9648 5C16.5088 5 18.7808 7.5403 18.7808 12.258C18.7808 16.9757 14.6155 18.0934 14.6155 18.0934C14.6155 18.0934 16.4479 18.4764 18.5757 20.4628C20.7034 22.4491 21.4127 28.4064 19.9943 29.5022Z" fill="white" stroke="#4B4B4B" stroke-width="2" stroke-linecap="round" stroke-linejoin="round"/>
<path d="M37.0172 29.5022C35.5988 30.5979 21.9853 30.6205 21.0358 29.5022C20.0863 28.3838 19.144 23.0924 21.5063 20.4628C23.1585 18.6236 25.9585 18.0934 25.9585 18.0934C25.9585 18.0934 21.7931 16.4087 21.7931 12.258C21.7931 7.9032 24.4437 5 28.9877 5C33.5318 5 35.8038 7.5403 35.8038 12.258C35.8038 16.9757 31.6384 18.0934 31.6384 18.0934C31.6384 18.0934 33.4709 18.4764 35.5986 20.4628C37.7264 22.4491 38.4356 28.4064 37.0172 29.5022Z" fill="white" stroke="#4B4B4B" stroke-width="2" stroke-linecap="round" stroke-linejoin="round"/>
<path d="M28.5056 33.757C27.0872 34.8527 13.4737 34.8754 12.5242 33.757C11.5747 32.6387 10.6324 27.3473 12.9947 24.7177C14.6469 22.8785 17.4469 22.3483 17.4469 22.3483C17.4469 22.3483 13.2815 20.6636 13.2815 16.5129C13.2815 12.1581 15.9321 9.25488 20.4761 9.25488C25.0202 9.25488 27.2922 11.7952 27.2922 16.5129C27.2922 21.2306 23.1268 22.3483 23.1268 22.3483C23.1268 22.3483 24.9593 22.7313 27.087 24.7177C29.2148 26.704 29.924 32.6613 28.5056 33.757Z" fill="white" stroke="#4B4B4B" stroke-width="2" stroke-linecap="round" stroke-linejoin="round"/>
</svg>

<svg width="40" height="40" fill="none" xmlns="http://www.w3.org/2000/svg"><path d="M19.994 29.502c-1.418 1.096-15.032 1.119-15.981 0-.95-1.118-1.892-6.41.47-9.04 1.653-1.838 4.453-2.369 4.453-2.369S4.77 16.41 4.77 12.258C4.77 7.903 7.42 5 11.965 5c4.544 0 6.816 2.54 6.816 7.258s-4.165 5.835-4.165 5.835 1.832.383 3.96 2.37c2.127 1.986 2.837 7.943 1.418 9.04z" fill="#fff" stroke="#4B4B4B" stroke-width="2" stroke-linecap="round" stroke-linejoin="round"/><path d="M37.017 29.502c-1.418 1.096-15.032 1.119-15.981 0-.95-1.118-1.892-6.41.47-9.04 1.652-1.838 4.453-2.369 4.453-2.369s-4.166-1.684-4.166-5.835c0-4.355 2.65-7.258 7.195-7.258 4.544 0 6.816 2.54 6.816 7.258s-4.166 5.835-4.166 5.835 1.833.383 3.96 2.37c2.128 1.986 2.838 7.943 1.42 9.04z" fill="#fff" stroke="#4B4B4B" stroke-width="2" stroke-linecap="round" stroke-linejoin="round"/><path d="M28.506 33.757c-1.419 1.096-15.032 1.118-15.982 0-.95-1.118-1.892-6.41.47-9.04 1.653-1.838 4.453-2.369 4.453-2.369s-4.165-1.684-4.165-5.835c0-4.355 2.65-7.258 7.194-7.258 4.544 0 6.816 2.54 6.816 7.258s-4.165 5.835-4.165 5.835 1.832.383 3.96 2.37c2.128 1.986 2.837 7.943 1.419 9.039z" fill="#fff" stroke="#4B4B4B" stroke-width="2" stroke-linecap="round" stroke-linejoin="round"/></svg>
